public/images/pages/home/hearts/lot.svg

<svg width="130" height="106" viewBox="0 0 130 106" fill="none" xmlns="http://www.w3.org/2000/svg">
<path d="M65.8578 25.5164C51.2332 4.73524 41.2666 4.47631 33.8502 2.58718C30.4091 -0.246588 21.8063 0.757046 13.2036 5.48003C1.03755 12.1593 2.88037 37.5963 2.88037 37.5963L12.3433 62.1558C12.3433 62.1558 82.0255 70.2867 119.017 68.3975C127.62 44.7826 129.34 23.5057 119.017 12.1706C110.322 2.62304 104.257 6.25895 95.7215 7.05902C73.9089 9.10364 66.0758 28.4003 65.8578 25.5164Z" fill="white"/>
<path d="M69.8287 31.0368C47.7468 16.9847 37.7095 25.0145 25.163 25.0145C15.1258 28.0257 2.07084 12.1214 2.57922 23.5089C3.08761 34.8964 4.58667 45.0889 4.58667 45.0889L14.6239 66.1671C14.6239 66.1671 31.6872 101.799 68.5554 104.309C133.063 83.7322 127.041 28.5275 127.041 28.5275C127.041 28.5275 118.213 23.3843 109.476 21.5014C87.2572 21.5014 85.8882 35.0517 69.8287 31.0368Z" fill="#FF4D4F"/>
<path d="M124.147 59.7241C119.431 73.5091 111.418 80.6177 101.412 88.8437C90.9796 99.0668 78.2604 106.126 64.655 105.929C39.3781 105.563 4.84771 67.204 1.07413 34.048C2.2481 32.3525 3.4897 34.2643 3.7291 35.6837C9.41934 69.4198 39.7673 100.089 64.655 103.156C78.1679 103.353 88.9535 95.768 99.5149 86.7991C108.84 78.8685 114.689 74.5314 121.328 59.1968C121.58 57.7735 124.399 58.3098 124.147 59.7241Z" fill="black"/>
<path d="M120.379 62.2636C145.985 -14.4095 79.8662 3.93627 65.8548 28.5646C53.2658 -0.0600306 -1.01295 -13.3872 3.72891 36.7059C2.7249 37.7406 1.07397 35.0517 1.07397 35.0517C-3.05777 -13.0376 49.8617 -6.27021 65.8548 23.5102C82.7363 0.486453 146.934 -15.4318 124.259 59.6212C123.827 61.0513 121.365 63.3163 120.379 62.2636Z" fill="black"/>
<path d="M28.5205 46.5007C30.3444 58.6794 34.2834 67.3239 48.1655 75.9513C48.75 77.0648 45.7915 78.1586 45.21 77.0522C33.7548 70.8342 26.8697 60.6134 25.4676 47.0839C25.2823 45.8465 28.3352 45.2632 28.5205 46.5007Z" fill="black"/>
</svg>

<svg xmlns="http://www.w3.org/2000/svg" fill="none" viewBox="0 0 130 106">
  <defs/>
  <path fill="#fff" d="M65.858 25.516C51.233 4.736 41.267 4.476 33.85 2.587 30.41-.247 21.806.757 13.204 5.48 1.038 12.16 2.88 37.596 2.88 37.596l9.463 24.56s69.682 8.13 106.674 6.241c8.603-23.614 10.323-44.891 0-56.226-8.695-9.548-14.76-5.912-23.295-5.112C73.909 9.104 66.076 28.4 65.858 25.516z"/>
  <path fill="#FF4D4F" d="M69.829 31.037c-22.082-14.052-32.12-6.022-44.666-6.022-10.037 3.01-23.092-12.894-22.584-1.506.509 11.387 2.008 21.58 2.008 21.58l10.037 21.078S31.687 101.8 68.555 104.31c64.508-20.577 58.486-75.781 58.486-75.781s-8.828-5.144-17.565-7.027c-22.219 0-23.588 13.55-39.647 9.536z"/>
  <path fill="#000" d="M124.147 59.724c-4.716 13.785-12.729 20.894-22.735 29.12-10.432 10.223-23.152 17.282-36.757 17.085-25.277-.366-59.807-38.725-63.58-71.881 1.173-1.696 2.415.216 2.654 1.636 5.69 33.736 36.038 64.405 60.926 67.472 13.513.197 24.299-7.388 34.86-16.357 9.325-7.93 15.174-12.268 21.813-27.602.252-1.424 3.071-.887 2.819.527z"/>
  <path fill="#000" d="M120.379 62.264c25.606-76.673-40.513-58.328-54.524-33.7C53.265-.06-1.013-13.386 3.729 36.707c-1.004 1.035-2.655-1.654-2.655-1.654-4.132-48.09 48.788-41.322 64.78-11.542C82.737.486 146.935-15.432 124.26 59.621c-.432 1.43-2.894 3.695-3.88 2.643zM28.52 46.5c1.824 12.18 5.763 20.824 19.646 29.451.584 1.114-2.374 2.208-2.956 1.101-11.455-6.218-18.34-16.439-19.742-29.968-.186-1.238 2.867-1.82 3.052-.583z"/>
</svg>
